X: 19986
T: Jim Hodder's
R: reel
M: 4/4
K: Edorian
|:E2B,E G2EG|B2GB d2Bc|dedB AFDF|GFED EDB,2|
E2B,E G2EG|B2GB d2Bc|dedB AFDF|1 GFED E2E2:|2 GFED E2B2||
|:[M:6/4] e3f gfeg f~B3|~e3f gfe2 b2b2|~e3f gfeg fdBc|1 ~d3B AFDF E2B2:|2 ~d3B AFDF E2E2||

